X:1
T: Hey Ho Johnnie Lad
C:
R:Reel
Q: 232
K:Bb
M:4/4
L:1/8
|:B2 Bd cB cd|BG FG c1/2c1/2c c2|B2 Bd cB cd|BG FG B1/2B1/2B B2|
B2 Bd cB cd|BG FG c1/2c1/2c c2|B2 Bd cB cd|BG FG B1/2B1/2B B2|
fg bd cB cd|fd bd c1/2c1/2c c2|fg1/2a1/2 bd cB cd|BG FG B1/2B1/2B Bg|
fg bd cB cd|fd bd c1/2c1/2c c2|b1/2a1/2g1/2f1/2 bd cB cd|BG FG B1/2B1/2B B2:|
